X:1
T: Miss E. Macleod's Reel
C:R. Mackintosh
R:Reel
Q: 232
K:A
M:4/4
L:1/8
|:c|A2 A,C EF GE|A2 EA FB GE|A2 aA fA eA|GB Ed cA Ac|
A2 A,C EF GE|A2 EA FB GE|A2 aA fA eA|GB Ed cA Ag|
a2 Aa f2 df|e2 cA BG FE|a2 Aa f2 df|ed cB cA Ag|
a2 Aa f2 df|e2 cA BG FE|FD BA GE dB|ce Bd cA A:|
